packages/gestalt-icons-android/vr-theme/ic_vr_collage_gestalt.svg

<svg width="24" height="24" viewBox="0 0 24 24" fill="none" xmlns="http://www.w3.org/2000/svg">
<path d="M6 6C6 3.79086 7.79086 2 10 2H19C21.2091 2 23 3.79086 23 6V15C23 17.2091 21.2091 19 19 19H14V17H19C20.1046 17 21 16.1046 21 15V6C21 4.89543 20.1046 4 19 4H10C8.89543 4 8 4.89543 8 6V11H6V6Z" fill="black"/>
<path d="M14.15 7H14.85L14.9512 7.43442C15.2537 8.7326 16.2674 9.74625 17.5656 10.0488L18 10.15V10.85L17.5656 10.9512C16.2674 11.2537 15.2537 12.2674 14.9512 13.5656L14.85 14H14.15L14.0488 13.5656C13.7463 12.2674 12.7326 11.2537 11.4344 10.9512L11 10.85V10.15L11.4344 10.0488C12.7326 9.74625 13.7463 8.7326 14.0488 7.43442L14.15 7Z" fill="black"/>
<path fill-rule="evenodd" clip-rule="evenodd" d="M12.0099 21.4418C11.5844 22.0418 10.9135 22.3636 10.2263 22.3636C9.79539 22.3636 9.35904 22.2382 8.98269 21.9709L5 19.3145L4.31691 19.7828C4.74035 20.2306 5 20.835 5 21.5C5 22.8807 3.88071 24 2.5 24C1.11929 24 0 22.8807 0 21.5C0 20.573 0.504556 19.7638 1.25403 19.3321L3.25561 18L1.25411 16.6679C0.504593 16.2362 0 15.427 0 14.5C0 13.1193 1.11929 12 2.5 12C3.88071 12 5 13.1193 5 14.5C5 15.165 4.74036 15.7694 4.31691 16.2172L5 16.6854L8.97724 14.0291C9.35904 13.7673 9.78994 13.6364 10.2208 13.6364C10.9081 13.6364 11.579 13.9582 12.0044 14.5582L7 18L12.0099 21.4418ZM2.5 22.5C3.05228 22.5 3.5 22.0523 3.5 21.5C3.5 20.9477 3.05228 20.5 2.5 20.5C1.94772 20.5 1.5 20.9477 1.5 21.5C1.5 22.0523 1.94772 22.5 2.5 22.5ZM3.5 14.5C3.5 15.0523 3.05228 15.5 2.5 15.5C1.94772 15.5 1.5 15.0523 1.5 14.5C1.5 13.9477 1.94772 13.5 2.5 13.5C3.05228 13.5 3.5 13.9477 3.5 14.5Z" fill="black"/>
</svg>

<svg xmlns="http://www.w3.org/2000/svg" width="24" height="24"><path d="M6 6a4 4 0 0 1 4-4h9a4 4 0 0 1 4 4v9a4 4 0 0 1-4 4h-5v-2h5a2 2 0 0 0 2-2V6a2 2 0 0 0-2-2h-9a2 2 0 0 0-2 2v5H6zm8.15 1h.7l.1.43a3.5 3.5 0 0 0 2.62 2.62l.43.1v.7l-.43.1a3.5 3.5 0 0 0-2.62 2.62l-.1.43h-.7l-.1-.43a3.5 3.5 0 0 0-2.62-2.62l-.43-.1v-.7l.43-.1a3.5 3.5 0 0 0 2.62-2.62zm-2.14 14.44a2.2 2.2 0 0 1-3.03.53L5 19.31l-.68.47A2.5 2.5 0 0 1 2.5 24a2.5 2.5 0 0 1-1.25-4.67l2-1.33-2-1.33a2.5 2.5 0 1 1 3.07-.45l.68.47 3.98-2.66a2.2 2.2 0 0 1 3.02.53L7 18zM2.5 22.5a1 1 0 1 0 0-2 1 1 0 0 0 0 2m0-9a1 1 0 1 0 0 2 1 1 0 0 0 0-2"/></svg>
